src/constants/images/delegate-icon.svg

<svg width="69" height="69" viewBox="0 0 69 69" fill="none" xmlns="http://www.w3.org/2000/svg">
<path d="M61.6344 54.9892C62.374 53.9672 62.8116 52.7129 62.8116 51.3578V43.2598C62.8116 42.5155 62.2081 41.9121 61.4639 41.9121H55.441C52.6567 41.9121 50.3916 44.1772 50.3916 46.9615V51.3578C50.3916 52.7121 50.8286 53.9654 51.5673 54.9872C50.646 55.1367 49.7596 55.4318 48.933 55.8639C47.0606 53.0699 43.9929 51.143 40.4677 50.818C40.4539 50.8141 40.4399 50.8112 40.426 50.8079C41.6873 49.3994 42.4562 47.5413 42.4562 45.5063V34.5C42.4562 33.7557 41.8527 33.1523 41.1085 33.1523H32.9226C29.4053 33.1523 26.5438 36.0138 26.5438 39.5311V45.5062C26.5438 47.5411 27.3127 49.3993 28.5739 50.8077C28.5601 50.8111 28.5461 50.8141 28.5323 50.8178C25.0067 51.1429 21.9389 53.07 20.0666 55.8644C19.2397 55.4325 18.3532 55.1371 17.4323 54.9876C18.1711 53.9658 18.6084 52.7122 18.6084 51.3578V43.2598C18.6084 42.5155 18.005 41.9121 17.2608 41.9121H11.2378C8.45358 41.9121 6.18844 44.1772 6.18844 46.9615V51.3578C6.18844 52.713 6.62602 53.9672 7.36561 54.9892C3.19421 55.671 0 59.2988 0 63.6599V67.6523C0 68.3967 0.603481 69 1.34766 69H67.6523C68.3965 69 69 68.3967 69 67.6523V63.6599C69 59.2988 65.8058 55.671 61.6344 54.9892ZM8.88375 46.9615C8.88375 45.6634 9.93977 44.6074 11.2378 44.6074H15.9131V46.2487C15.9131 47.0536 15.2584 47.7082 14.4537 47.7082H8.88375V46.9615ZM8.88375 50.4034H14.4537C14.9672 50.4034 15.4588 50.3092 15.9131 50.1381V51.3578C15.9131 53.2958 14.3365 54.8725 12.3984 54.8725C10.4604 54.8725 8.88375 53.2958 8.88375 51.3578V50.4034ZM13.2673 57.5678L12.3984 58.4367L11.5296 57.5678H13.2673ZM18.133 62.2261V66.3047H2.69531V63.6599C2.69531 60.6373 4.90857 58.1228 7.79929 57.6492L11.4455 61.2954C11.6983 61.5481 12.041 61.6902 12.3984 61.6902C12.7558 61.6902 13.0985 61.5481 13.3514 61.2954L16.9987 57.648C17.6428 57.7529 18.2624 57.9605 18.8397 58.2643C18.3831 59.4996 18.133 60.8341 18.133 62.2261ZM34.5001 50.7672C31.5993 50.7672 29.2393 48.4071 29.2393 45.5063V43.7251H37.2934C38.1865 43.7251 39.0275 43.497 39.761 43.0962V45.5063C39.761 48.4071 37.401 50.7672 34.5001 50.7672ZM36.8492 53.4623L34.5 55.8116L32.1508 53.4623H36.8492ZM29.239 39.5311H29.2392C29.2392 37.5 30.8915 35.8477 32.9226 35.8477H39.7608V38.5624C39.7608 39.923 38.6539 41.0299 37.2933 41.0299H29.239V39.5311ZM48.1716 66.3047H45.5508H23.4492H20.8284V63.6094H29.6036C30.3477 63.6094 30.9512 63.006 30.9512 62.2617C30.9512 61.5174 30.3477 60.9141 29.6036 60.9141H20.9269C21.5046 57.0839 24.5705 54.0604 28.4198 53.5431L33.5471 58.6704C33.8103 58.9335 34.1551 59.0651 34.5 59.0651C34.8449 59.0651 35.1897 58.9335 35.4529 58.6704L40.5802 53.5431C44.8598 54.1182 48.1716 57.7915 48.1716 62.2261V66.3047ZM53.0869 46.9615C53.0869 45.6634 54.1429 44.6074 55.441 44.6074H60.1162V46.2487C60.1162 47.0536 59.4616 47.7082 58.6569 47.7082H53.0869V46.9615ZM53.0869 50.4034H58.6569C59.1703 50.4034 59.662 50.3092 60.1162 50.1381V51.3578C60.1162 53.2958 58.5396 54.8725 56.6016 54.8725C54.6635 54.8725 53.0869 53.2958 53.0869 51.3578V50.4034ZM57.4704 57.5678L56.6016 58.4367L55.7327 57.5678H57.4704ZM50.8669 66.3047V62.2261C50.8669 60.834 50.6168 59.4994 50.16 58.264C50.7371 57.96 51.3565 57.7525 52.0008 57.6477L55.6485 61.2954C55.9013 61.5481 56.244 61.6902 56.6014 61.6902C56.9588 61.6902 57.3015 61.5481 57.5544 61.2954L61.2006 57.6492C64.0913 58.1229 66.3046 60.6373 66.3046 63.6599V66.3047H50.8669Z" fill="white"/>
<path d="M41.1421 8.80531C40.6157 8.27905 39.7627 8.27905 39.2361 8.80531L32.6232 15.4184L29.7644 12.5596C29.238 12.0332 28.385 12.0332 27.8586 12.5595C27.3323 13.0857 27.3323 13.9391 27.8586 14.4655L31.6703 18.2772C31.9231 18.5299 32.2658 18.6719 32.6232 18.6719C32.9806 18.6719 33.3233 18.5299 33.5761 18.2772L41.1421 10.7112C41.6684 10.1849 41.6684 9.33157 41.1421 8.80531Z" fill="white"/>
<path d="M40.0103 1.1687C39.3306 0.865614 38.5338 1.17086 38.2305 1.85062C37.9273 2.53037 38.2327 3.32724 38.9125 3.63033C42.8205 5.37325 45.3458 9.26353 45.3458 13.5413C45.3458 19.5216 40.4803 24.3871 34.5 24.3871C28.5196 24.3871 23.6542 19.5216 23.6542 13.5413C23.6542 9.28564 26.1612 5.40344 30.0411 3.65108C30.7194 3.34476 31.021 2.54641 30.7145 1.86814C30.4082 1.18973 29.6095 0.888254 28.9317 1.19458C24.0885 3.38209 20.959 8.2284 20.959 13.5411C20.9588 21.0078 27.0334 27.0824 34.5 27.0824C41.9665 27.0824 48.0411 21.0078 48.0411 13.5413C48.0411 8.20091 44.8888 3.34436 40.0103 1.1687Z" fill="white"/>
<path d="M34.5482 0H34.5C33.7558 0 33.1523 0.603346 33.1523 1.34766C33.1523 2.09197 33.7558 2.69531 34.5 2.69531H34.5356C34.5377 2.69531 34.5398 2.69531 34.542 2.69531C35.2834 2.69531 35.8861 2.09614 35.8896 1.35399C35.8931 0.60968 35.2926 0.00350391 34.5482 0Z" fill="white"/>
<path d="M35.4527 61.3089C35.2021 61.0583 34.8544 60.9141 34.5 60.9141C34.1456 60.9141 33.7979 61.0583 33.5472 61.3089C33.2965 61.5596 33.1523 61.9073 33.1523 62.2617C33.1523 62.6162 33.2964 62.9638 33.5472 63.2145C33.798 63.4652 34.1456 63.6094 34.5 63.6094C34.8544 63.6094 35.2021 63.4652 35.4527 63.2145C35.7033 62.9638 35.8477 62.6162 35.8477 62.2617C35.8477 61.9073 35.7035 61.5596 35.4527 61.3089Z" fill="white"/>
</svg>

<svg width="69" height="69" fill="none" xmlns="http://www.w3.org/2000/svg"><path d="M61.634 54.99a6.174 6.174 0 001.178-3.632V43.26c0-.744-.604-1.348-1.348-1.348H55.44a5.055 5.055 0 00-5.05 5.05v4.396c0 1.354.438 2.607 1.176 3.63a8.677 8.677 0 00-2.634.876 11.466 11.466 0 00-8.465-5.046l-.042-.01a7.924 7.924 0 002.03-5.302V34.5c0-.744-.603-1.348-1.348-1.348h-8.185a6.386 6.386 0 00-6.38 6.38v5.974c0 2.035.77 3.893 2.03 5.302l-.04.01a11.466 11.466 0 00-8.466 5.046 8.689 8.689 0 00-2.635-.876 6.175 6.175 0 001.176-3.63V43.26c0-.744-.603-1.348-1.347-1.348h-6.023a5.055 5.055 0 00-5.05 5.05v4.396c0 1.355.438 2.61 1.178 3.631C3.194 55.671 0 59.3 0 63.66v3.993C0 68.397.603 69 1.348 69h66.304c.745 0 1.348-.603 1.348-1.348V63.66c0-4.361-3.194-7.989-7.366-8.67zM8.884 46.96a2.357 2.357 0 012.354-2.354h4.675v1.642c0 .805-.655 1.46-1.46 1.46h-5.57v-.748zm0 3.442h5.57c.513 0 1.005-.094 1.46-.265v1.22a3.519 3.519 0 01-3.516 3.515 3.519 3.519 0 01-3.514-3.515v-.955zm4.383 7.165l-.869.869-.868-.87h1.737zm4.866 4.658v4.079H2.695V63.66c0-3.023 2.214-5.537 5.104-6.01l3.646 3.645a1.348 1.348 0 001.906 0L17 57.648a6.027 6.027 0 011.84.616 11.404 11.404 0 00-.706 3.962zM34.5 50.767c-2.9 0-5.26-2.36-5.26-5.26v-1.782h8.053c.894 0 1.735-.228 2.468-.629v2.41c0 2.901-2.36 5.261-5.26 5.261zm2.35 2.695l-2.35 2.35-2.35-2.35h4.7zm-7.611-13.93a3.687 3.687 0 013.684-3.684h6.838v2.714a2.47 2.47 0 01-2.468 2.468H29.24V39.53zm18.933 26.773H20.829v-2.696h8.775a1.348 1.348 0 000-2.695h-8.677a8.782 8.782 0 017.493-7.37l5.127 5.126a1.344 1.344 0 001.906 0l5.127-5.127c4.28.575 7.592 4.248 7.592 8.683v4.079zm4.915-19.344a2.357 2.357 0 012.354-2.354h4.675v1.642a1.46 1.46 0 01-1.46 1.46h-5.57v-.748zm0 3.442h5.57c.513 0 1.005-.094 1.46-.265v1.22a3.519 3.519 0 01-3.515 3.515 3.519 3.519 0 01-3.515-3.515v-.955zm4.383 7.165l-.868.869-.87-.87h1.738zm-6.603 8.737v-4.079c0-1.392-.25-2.727-.707-3.962a6.014 6.014 0 011.84-.616l3.648 3.647a1.348 1.348 0 001.906 0l3.647-3.646c2.89.474 5.104 2.988 5.104 6.01v2.646H50.867zM41.142 8.805a1.348 1.348 0 00-1.906 0l-6.613 6.613-2.859-2.858a1.347 1.347 0 10-1.905 1.905l3.811 3.812a1.348 1.348 0 001.906 0l7.566-7.566a1.348 1.348 0 000-1.906z" fill="#fff"/><path d="M40.01 1.169a1.348 1.348 0 00-1.097 2.461 10.864 10.864 0 016.433 9.911c0 5.98-4.866 10.846-10.846 10.846s-10.846-4.865-10.846-10.846c0-4.255 2.507-8.138 6.387-9.89a1.348 1.348 0 10-1.11-2.456A13.572 13.572 0 0020.96 13.54c0 7.467 6.074 13.541 13.541 13.541 7.467 0 13.541-6.074 13.541-13.54 0-5.341-3.152-10.198-8.03-12.373z" fill="#fff"/><path d="M34.548 0H34.5a1.348 1.348 0 000 2.695H34.542A1.348 1.348 0 0034.548 0zM35.453 61.309a1.358 1.358 0 00-.953-.395c-.354 0-.702.144-.953.395-.25.25-.395.598-.395.953 0 .354.144.702.395.953.251.25.599.394.953.394s.702-.144.953-.395c.25-.25.395-.598.395-.952 0-.355-.145-.702-.395-.953z" fill="#fff"/></svg>
